X: 1
T: String Quartet in G Major opus 54 no 1 mvt 4
C: Franz Joseph Haydn
%%abc-version 2.0
%%abcx-abcm2ps-target-version 5.9.1 (29 Sep 2008)
%%abc-creator hum2abc beta
%%abcx-conversion-date 2021/02/14 14:38:22
%%abc-copyright Copyright (c) 1994, 2000 Center for Computer Assisted Research in the Humanities
%%abc-edited-by Frances Bennion
%%abcx-initial-encoding-date 1997/04/15
%%gracespace 0 6 6
%%humdrum-veritas 1479795882
%%humdrum-veritas-data 358155922
%%linebreak <none>
%%barnumbers 0
L: 1/16
M: 2/4
N: Derived from op54n1-04.krn
Q: "Vivace"
%%staves [1 2 3 4]
V: 1
V: 2
V: 3 clef=alto
V: 4 clef=bass
K: G
[V:1]z4 B2B2 [I:setbarnb1]|
[V:2]z4 z4 |
[V:3]z4 z4 |
[V:4]z4 z4 |
[V:1]B6 d2 |
[V:2]B,DB,D B,DB,D |
[V:3]G,B,G,B, G,B,G,B, |
[V:4]G,,4 z4 |
[V:1]c2A2 F2ED |
[V:2]CDCD CDCD |
[V:3]A,CA,C A,CA,C |
[V:4]D,4 z4 |
[V:1]G2G2 G2FG |
[V:2]B,DB,D B,DB,D |
[V:3]G,B,G,B, G,B,G,B, |
[V:4]G,4 z4 |
[V:1]A2z2 c2c2 |
[V:2]CDCD CDCD |
[V:3]A,CA,C A,CA,C |
[V:4]D,4 z4 |
[V:1]c6 d2 |
[V:2]CDCD CDCD |
[V:3]A,CA,C A,CA,C |
[V:4]F,,8 |
[V:1]B2AG g2g2 |
[V:2]B,DB,D B,DB,D |
[V:3]G,B,G,B, G,B,G,B, |
[V:4]G,,4 z4 |
[V:1]e2^de ^c2Bc |
[V:2]EGEG EGEG |
[V:3]B,EB,E ^CECE |
[V:4]G,4 A,4 |
[V:1]d4 d2d2 |
[V:2]F4 z4 |
[V:3]D4 z4 |
[V:4]D,4 z4 |
[V:1]d6 f2 |
[V:2]A8 |
[V:3]F6 A2 |
[V:4]CDCD CDCD |
[V:1]g2b2 d2cB |
[V:2]G2z2 B2z2 |
[V:3]D2z2 D2z2 |
[V:4]B,DB,D G,B,G,B, |
[V:1]c2c2 B2AG |
[V:2]D2z2 D2G2 |
[V:3]A2z2 G2z2 |
[V:4]F,A,F,A, G,B,G,B, |
[V:1]A2A2 z4 |
[V:2]F2F2 d2d2 |
[V:3]D4 z4 |
[V:4]D4 z4 |
[V:1]g2g2 a2ga |
[V:2]d2cd c2c2 |
[V:3]z2B,2 E2C2 |
[V:4]E,2E,2 A,,2A,,2 |
[V:1]f2f2 g2fg |
[V:2]c2Bc B2B2 |
[V:3]z2A,2 D2B,2 |
[V:4]D,2D,2 G,,2G,,2 |
[V:1]e2e2 d2^cd |
[V:2]G8- |
[V:3]C2C2 B,2B,2 |
[V:4]C,2C,2 D,2D,2 |
[V:1]^c4 =c2c2 |
[V:2]G4 A2A2 |
[V:3]_B,4 D2D2 |
[V:4]E,4 F,2F,2 |
[V:1]c2z6 |
[V:2]A2z6 |
[V:3]D2z6 |
[V:4]F,2z6 |
[V:1]z4 B2B2 |
[V:2]z8 |
[V:3]z8 |
[V:4]z8 |
[V:1]B6 d2 |
[V:2]B,DB,D B,DB,D |
[V:3]G,B,G,B, G,B,G,B, |
[V:4]G,,4 z4 |
[V:1]c2A2 F2ED |
[V:2]CDCD CDCD |
[V:3]A,CA,C A,CA,C |
[V:4]D,4 z4 |
[V:1]G2G2 G2FG |
[V:2]B,DB,D B,DB,D |
[V:3]G,B,G,B, G,B,G,B, |
[V:4]G,4 z4 |
[V:1]A2z2 c2c2 |
[V:2]CDCD CDCD |
[V:3]A,CA,C A,CA,C |
[V:4]D,4 z4 |
[V:1]c6 d2 |
[V:2]CDCD CDCD |
[V:3]A,CA,C A,CA,C |
[V:4]F,,8 |
[V:1]B2AG e2e2 |
[V:2]B,DB,D CEGc |
[V:3]G,B,G,B, G,2G,2 |
[V:4]G,,4 C,4 |
[V:1]d2cB A2GF |
[V:2]B2AG A2GF |
[V:3]D,2z2 C2B,A, |
[V:4]D,4 D,4 |
[V:1]G4 d2d2 |
[V:2]G4 z4 |
[V:3]G,4 z4 |
[V:4]G,,4 z4 |
[V:1]d4 fg_bg |
[V:2]_B2B2 B2B2 |
[V:3]G2G2 G2G2 |
[V:4]z8 |
[V:1]f2a2 c2c2 |
[V:2]c4 z4 |
[V:3]A4 z4 |
[V:4]z8 |
[V:1]c4 _e2dc |
[V:2]A2A2 A2A2 |
[V:3]F2F2 F2F2 |
[V:4]z8 |
[V:1]_B2G2 d2d2 |
[V:2]_B2z2 B2B2 |
[V:3]G4 z4 |
[V:4]z8 |
[V:1]d4 _e2=e2 |
[V:2]_B8 |
[V:3]G2G2 G4 |
[V:4]z4 C2C2 |
[V:1]=f2_e2 d2_B2 |
[V:2]A2c2 _B2=F2 |
[V:3]=F6 _B2 |
[V:4]=F,2A,2 _B,2D,2 |
[V:1]cd_ec A=F_EC |
[V:2]G2z2 _E2z2 |
[V:3]_E2z2 C2z2 |
[V:4]_E,2z2 =F,2z2 |
[V:1]_B,CD_E =FGA_B |
[V:2]D4 z4 |
[V:3]D4 z4 |
[V:4]_B,4 z4 |
[V:1]cd_ec A=F_EC |
[V:2]G2z2 _E2z2 |
[V:3]C2z2 C2z2 |
[V:4]_E,2z2 =F,2z2 |
[V:1]D_E=FG A_Bcd |
[V:2]_B,CD_E =FGA_B |
[V:3]_B,4 z4 |
[V:4]_B,4 z4 |
[V:1]_e=fga _bc'd'_e' |
[V:2]_B2z2 B2z2 |
[V:3]_E,2z2 _E2z2 |
[V:4]G,2z2 _E,2z2 |
[V:1]=f'd'c'_b ag=f_e |
[V:2]_B8- |
[V:3]D6 G2 |
[V:4]D,6 _E,2 |
[V:1]d2Dd _Ec=FA |
[V:2]B2D2 _E2E2 |
[V:3]=F2_B2 G2C2 |
[V:4]=F,2G,2 _E,2F,2 |
[V:1]_B4 =f2f2 |
[V:2]D4 d2d2 |
[V:3]D4 z4 |
[V:4]_B,,4 z4 |
[V:1]=f4 d2c_B |
[V:2]d2z6 |
[V:3]D,_E,=F,G, A,_B,CD |
[V:4]_B,,C,D,_E, =F,G,A,_B, |
[V:1]A2z2 _e2e2 |
[V:2]z4 c2c2 |
[V:3]_E=FGF EDC_B, |
[V:4]CD_ED C_B,A,G, |
[V:1]_e4 e2dc |
[V:2]c4 z4 |
[V:3]A,_B,A,G, =F,2=F2 |
[V:4]=F,G,F,_E, D,C,_B,,A,, |
[V:1]d2_B2 =f2f2 |
[V:2]z4 d2d2 |
[V:3]_B,4 z4 |
[V:4]_B,,4 z4 |
[V:1]=f4 _e2d2 |
[V:2]d4 c2B2 |
[V:3]G,8 |
[V:4]G,,A,,B,,C, D,_E,=F,G, |
[V:1]_e2c2 e2e2 |
[V:2]c2z2 c2c2 |
[V:3]C,2z2 C,2C,2 |
[V:4]C,D,_E,=F, G,A,B,C |
[V:1]_e4 d2c2 |
[V:2]c4 _B2A2 |
[V:3]=F,G,A,_B, CD_E=F |
[V:4]=F,4 z4 |
[V:1]d2_B2 d2d2 |
[V:2]_B2z6 |
[V:3]_B,CD_E =FGA_B |
[V:4]z8 |
[V:1]c2c2 _B2AB |
[V:2]z8 |
[V:3]ADAD GDGD |
[V:4]z8 |
[V:1]A2z2 d'2d'2 |
[V:2]z4 d2d2 |
[V:3]FDFD _B2D2 |
[V:4]z4 D,,_B,,D,,B,, |
[V:1]c'2c'2 _b2ab |
[V:2]f2f2 g2fg |
[V:3]A2D2 G2D2 |
[V:4]D,,A,,D,,A,, D,,G,,D,,G,, |
[V:1]a4 d2d2 |
[V:2]f4 F2F2 |
[V:3]D,2D2 D2D2 |
[V:4]D,,2D,2 D,,2D,,2 |
[V:1]_b4 agfg |
[V:2]G4 A2_B2 |
[V:3]^C8 |
[V:4]D,,8- |
[V:1]fafd _babg |
[V:2]A2>F2 GFG_B |
[V:3]D4 ^C4 |
[V:4]D,,8- |
[V:1]fafd _babg |
[V:2]A2>F2 GFG_B |
[V:3]D4 ^C4 |
[V:4]D,,8- |
[V:1]f2d2 d2d2 |
[V:2]A4 z4 |
[V:3]D4 z4 |
[V:4]D,,4 z4 |
[V:1]d4 fg_bg |
[V:2]_B2B2 B2B2 |
[V:3]G2G2 G2G2 |
[V:4]z8 |
[V:1]f2a2 c2c2 |
[V:2]c4 z4 |
[V:3]A4 z4 |
[V:4]z8 |
[V:1]c4 _e2dc |
[V:2]A2A2 A2A2 |
[V:3]F2F2 F2F2 |
[V:4]z8 |
[V:1]_B2G2 _e2e2 |
[V:2]_B2z2 B2B2 |
[V:3]G2z2 _E2E2 |
[V:4]z4 G,2G,2 |
[V:1]_e2z2 ^c2c2 |
[V:2]_B2z2 B2B2 |
[V:3]_E2z2 E2E2 |
[V:4]G,2z2 G,2G,2 |
[V:1]^c2z2 =c2c2 |
[V:2]_B2z2 A2A2 |
[V:3]_E2z2 D2D2 |
[V:4]G,2z2 F,2F,2 |
[V:1]c6 B2 |
[V:2]A8- |
[V:3]D8- |
[V:4]F,8- |
[V:1]d2c2 _e2d2 |
[V:2]A8- |
[V:3]D8- |
[V:4]F,8- |
[V:1]c4 B2B2 |
[V:2]A4 z4 |
[V:3]D4 z4 |
[V:4]F,4 z4 |
[V:1]B6 d2 |
[V:2]B,DB,D B,DB,D |
[V:3]G,B,G,B, G,B,G,B, |
[V:4]G,,4 z4 |
[V:1]c2A2 F2ED |
[V:2]CDCD CDCD |
[V:3]A,CA,C A,CA,C |
[V:4]D,4 z4 |
[V:1]G2G2 G2FG |
[V:2]B,DB,D B,DB,D |
[V:3]G,B,G,B, G,B,G,B, |
[V:4]G,4 z4 |
[V:1]A2z2 c2c2 |
[V:2]CDCD CDCD |
[V:3]A,CA,C A,CA,C |
[V:4]D,4 z4 |
[V:1]c6 d2 |
[V:2]CDCD CDCD |
[V:3]A,CA,C A,CA,C |
[V:4]F,,8 |
[V:1]B2AG g2g2 |
[V:2]B,DB,D B,DB,D |
[V:3]G,B,G,B, G,B,G,B, |
[V:4]G,,4 z4 |
[V:1]e2^de ^c2Bc |
[V:2]EGEG EGEG |
[V:3]B,EB,E ^CECE |
[V:4]G,4 A,4 |
[V:1]d4 B2B2 |
[V:2]F4 z4 |
[V:3]D4 z4 |
[V:4]D,4 z4 |
[V:1]B6 d2 |
[V:2]DFDF DFDF |
[V:3]B,DB,D B,DB,D |
[V:4]B,,2B,2 B,,2B,2 |
[V:1]^c2^A2 A2^GF |
[V:2]EFEF EFEF |
[V:3]^CECE CECE |
[V:4]F,,2F,2 F,,2F,2 |
[V:1]B2B2 B2^AB |
[V:2]DFDF DFDF |
[V:3]B,DB,D B,DB,D |
[V:4]B,,2B,2 B,,2B,2 |
[V:1]^c4 c2c2 |
[V:2]^CFCF CFCF |
[V:3]^A,^CA,C A,CA,C |
[V:4]F,,2F,2 F,,2F,2 |
[V:1]^c6 e2 |
[V:2]^CECE CECE |
[V:3]^A,^CA,C A,CA,C |
[V:4]F,,2F,2 F,,2F,2 |
[V:1]d2^cB d2d2 |
[V:2]DFDF DFDF |
[V:3]B,DB,D B,DB,D |
[V:4]B,,2B,2 B,,2B,2 |
[V:1][A6e6] g2 |
[V:2]EGEG EGEG |
[V:3]^CECE CECE |
[V:4]A,,2A,2 A,,2A,2 |
[V:1]f2ed f2f2 |
[V:2]FAFA FAFA |
[V:3]DFDF DFDF |
[V:4]D,,2D,2 D,,2D,2 |
[V:1]f2^ef ^g2e2 |
[V:2]FAFA ^E^GEG |
[V:3]^CFCF C2C2 |
[V:4]^C,,2^C,2 C,,2C,2 |
[V:1]f4 f2f2 |
[V:2]F4 d2d2 |
[V:3]F,4 z4 |
[V:4]F,,4 z4 |
[V:1]f2z2 F2F2 |
[V:2]d2z2 F2F2 |
[V:3]z4 F,2F,2 |
[V:4]z4 F,2F,2 |
[V:1]F2z2 e2e2 |
[V:2]F2z2 ^c2c2 |
[V:3]F,2z6 |
[V:4]F,2z6 |
[V:1]e2z2 F^EFE |
[V:2]^c2z2 F^EFE |
[V:3]z4 F,^E,F,E, |
[V:4]z4 F,^E,F,E, |
[V:1]F2z2 d2d2 |
[V:2]F2z2 B2B2 |
[V:3]F,2z6 |
[V:4]F,2z6 |
[V:1]d2z6 |
[V:2]B2z6 |
[V:3]z8 |
[V:4]z8 |
[V:1]z4 ^c2c2 |
[V:2]z4 ^A2A2 |
[V:3]z8 |
[V:4]z8 |
[V:1]^c2z6 |
[V:2]^A2z6 |
[V:3]z8 |
[V:4]z8 |
[V:1]z4 c2c2 |
[V:2]z4 A2A2 |
[V:3]z8 |
[V:4]z8 |
[V:1]c2z6 |
[V:2]A2z6 |
[V:3]z8 |
[V:4]z8 |
[V:1]z4 B2B2 |
[V:2]z4 G2G2 |
[V:3]z8 |
[V:4]z8 |
[V:1]B6 d2 |
[V:2]B,DB,D B,DB,D |
[V:3]G,B,G,B, G,B,G,B, |
[V:4]G,,4 z4 |
[V:1]c2A2 F2ED |
[V:2]CDCD CDCD |
[V:3]A,CA,C A,CA,C |
[V:4]D,4 z4 |
[V:1]G2G2 G2FG |
[V:2]B,DB,D B,DB,D |
[V:3]G,B,G,B, G,B,G,B, |
[V:4]G,4 z4 |
[V:1]A2z2 c2c2 |
[V:2]CDCD CDCD |
[V:3]A,CA,C A,CA,C |
[V:4]D,4 z4 |
[V:1]c6 d2 |
[V:2]CDCD CDCD |
[V:3]A,CA,C A,CA,C |
[V:4]F,,8 |
[V:1]B2AG g2g2 |
[V:2]B,DB,D B,DB,D |
[V:3]G,B,G,B, G,B,G,B, |
[V:4]G,,4 z4 |
[V:1]e2^de ^c2Bc |
[V:2]EGEG EGEG |
[V:3]B,EB,E ^CECE |
[V:4]G,4 A,4 |
[V:1]d2z2 b2b2 |
[V:2]F4 z4 |
[V:3]D4 z4 |
[V:4]D,4 z4 |
[V:1]b6 d'2 |
[V:2]Bdgd BdBG |
[V:3]G8 |
[V:4]z8 |
[V:1]c'2a2 f2ed |
[V:2]FGAB cABc |
[V:3]D8 |
[V:4]z8 |
[V:1]g2g2 g2fg |
[V:2]Bded cBAG |
[V:3]G8 |
[V:4]z8 |
[V:1]a2z2 c'2c'2 |
[V:2]FGAB ABcd |
[V:3]DEFG FGAB |
[V:4]D8- |
[V:1]c'6 d'2 |
[V:2]edcB AFGA |
[V:3]cBAG FDEF |
[V:4]D8 |
[V:1]b2ag g'2g'2 |
[V:2]BdcB b^def |
[V:3]G4 z4 |
[V:4]G4 z4 |
[V:1]e'2^d'e' ^c'2bc' |
[V:2]g2fg e2de |
[V:3]G4 A4 |
[V:4]z8 |
[V:1]d'2z2 d2d2 |
[V:2]d2z6 |
[V:3]D2z6 |
[V:4]z8 |
[V:1]d6 f2 |
[V:2]A8 |
[V:3]F6 A2 |
[V:4]CDCD CDCD |
[V:1]g2b2 d2cB |
[V:2]G2z2 B2z2 |
[V:3]D2z2 D2z2 |
[V:4]B,DB,D G,B,G,B, |
[V:1]c2c2 B2AG |
[V:2]D2z2 D2G2 |
[V:3]A2z2 G2z2 |
[V:4]F,A,F,A, G,B,G,B, |
[V:1]A2A2 z4 |
[V:2]F2F2 d2d2 |
[V:3]D4 z4 |
[V:4]D4 z4 |
[V:1]g2g2 a2ga |
[V:2]d2cd c2c2 |
[V:3]z2B,2 E2C2 |
[V:4]E,2E,2 A,,2A,,2 |
[V:1]f2f2 g2fg |
[V:2]c2Bc B2B2 |
[V:3]z2A,2 D2B,2 |
[V:4]D,2D,2 G,,2G,,2 |
[V:1]e2e2 d2^cd |
[V:2]G8- |
[V:3]C2C2 B,2B,2 |
[V:4]C,2C,2 D,2D,2 |
[V:1]^c4 =c2c2 |
[V:2]G4 A2A2 |
[V:3]_B,4 D2D2 |
[V:4]E,4 F,2F,2 |
[V:1]c2z6 |
[V:2]A2z6 |
[V:3]D2z6 |
[V:4]F,2z6 |
[V:1]z4 _E2E2 |
[V:2]z4 _E2E2 |
[V:3]z4 _E,2E,2 |
[V:4]z4 _E,,2E,,2 |
[V:1]_E2z6 |
[V:2]_E2z6 |
[V:3]_E,2z6 |
[V:4]_E,,2z6 |
[V:1]z4 c'2c'2 |
[V:2]z4 f2f2 |
[V:3]z4 A2A2 |
[V:4]z4 D2D2 |
[V:1]c'2z6 |
[V:2]f2z6 |
[V:3]A2z6 |
[V:4]D2z6 |
[V:1]z4 b2b2 |
[V:2]z8 |
[V:3]z8 |
[V:4]z8 |
[V:1]b6 d'2 |
[V:2]Bdgd BdBG |
[V:3]G8 |
[V:4]z8 |
[V:1]c'2a2 f2ed |
[V:2]FGAB cABc |
[V:3]D8 |
[V:4]z8 |
[V:1]g2g2 g2fg |
[V:2]Bded cBAG |
[V:3]G8 |
[V:4]z8 |
[V:1]a2z2 c'2c'2 |
[V:2]FGAB ABcd |
[V:3]DEFG FGAB |
[V:4]D8- |
[V:1]c'6 d'2 |
[V:2]edcB AFGA |
[V:3]cBAG FDEF |
[V:4]D8 |
[V:1]b2ag e'2e'2 |
[V:2]BdcB EGcc |
[V:3]G4 C2C2 |
[V:4]G4 z4 |
[V:1]d'2c'b a2gf |
[V:2]B2AG c2BA |
[V:3]D2D2 D2D2 |
[V:4]z8 |
[V:1]g2z2 B,2B,2 |
[V:2]G2z6 |
[V:3]G,2z6 |
[V:4]z8 |
[V:1]B,6 D2 |
[V:2]z8 |
[V:3]D,8- |
[V:4]G,,2D,,2 G,,2D,,2 |
[V:1]C2A,2 A,2G,A, |
[V:2]z8 |
[V:3]D,8- |
[V:4]F,,2D,,2 F,,2D,,2 |
[V:1]B,CDE FGFE |
[V:2]z8 |
[V:3]D,8- |
[V:4]G,,2D,,2 G,,2D,,2 |
[V:1]D2z2 C2C2 |
[V:2]z8 |
[V:3]D,8- |
[V:4]F,,2D,,2 F,,2D,,2 |
[V:1]C6 D2 |
[V:2]A,8 |
[V:3]D,8- |
[V:4]F,,2D,,2 F,,2D,,2 |
[V:1]B,2A,G, E2E2 |
[V:2]G,2z2 C2C2 |
[V:3]D,2G,2 G,2G,2 |
[V:4]G,,4 C,2C,2 |
[V:1]E8- |
[V:2]C8- |
[V:3]G,8- |
[V:4]C,8- |
[V:1]E2=F2 F2F2 |
[V:2]C2D2 D2D2 |
[V:3]G,2G,2 G,2G,2 |
[V:4]C,2B,,2 B,,2B,,2 |
[V:1]=F8- |
[V:2]D8- |
[V:3]G,8- |
[V:4]B,,8- |
[V:1]F2^D2 D2D2 |
[V:2]D2^D2 D2D2 |
[V:3]G,2G,2 G,2G,2 |
[V:4]B,,2B,,2 B,,2B,,2 |
[V:1]E2^DE F2EF |
[V:2]E2z2 C2z2 |
[V:3]G,2z4 A,2 |
[V:4]C,2z2 A,,2z2 |
[V:1]G2FG A2GA |
[V:2]D2z2 D2z2 |
[V:3]z2B,2 z2F2 |
[V:4]B,,2z2 F,2z2 |
[V:1]B2AB c2Bc |
[V:2]D2z2 G2z2 |
[V:3]z2G2 z2E2 |
[V:4]G,2z2 E,2z2 |
[V:1]d6 d2 |
[V:2]G2z4 D2 |
[V:3]z2B,2 z4 |
[V:4]B,,4 z4 |
[V:1]^cdcd cdcd |
[V:2]^CDCD CDCD |
[V:3]z8 |
[V:4]z8 |
[V:1]^cded gfag |
[V:2]^CDED GFAG |
[V:3]z8 |
[V:4]z8 |
[V:1]b8- |
[V:2]B2g4 g2 |
[V:3]z8 |
[V:4]F,G,A,G, CB,DC |
[V:1]b8- |
[V:2]g8- |
[V:3]FGAG cBed |
[V:4]E8- |
[V:1]b4 a2a2 |
[V:2]g4 g2g2 |
[V:3]^c4 c2c2 |
[V:4]E4 E2E2 |
[V:1]a2z6 |
[V:2]g2z6 |
[V:3]^c2z6 |
[V:4]E2z6 |
[V:1]z4 a2a2 |
[V:2]z4 f2f2 |
[V:3]z4 c2c2 |
[V:4]z4 ^D2D2 |
[V:1]a2z6 |
[V:2]f2z6 |
[V:3]c2z6 |
[V:4]^D2z6 |
[V:1]z4 c'2c'2 |
[V:2]z4 f2f2 |
[V:3]z4 A2A2 |
[V:4]z4 D2D2 |
[V:1]c'2z6 |
[V:2]f2z6 |
[V:3]A2z6 |
[V:4]D2z6 |
[V:1]z4 B2B2 |
[V:2]z8 |
[V:3]z8 |
[V:4]z8 |
[V:1]B6 d2 |
[V:2]B,DB,D B,DB,D |
[V:3]G,B,G,B, G,B,G,B, |
[V:4]G,,4 z4 |
[V:1]c2A2 F2ED |
[V:2]CDCD CDCD |
[V:3]A,CA,C A,CA,C |
[V:4]D,4 z4 |
[V:1]G2G2 G2FG |
[V:2]B,DB,D B,DB,D |
[V:3]G,B,G,B, G,B,G,B, |
[V:4]G,4 z4 |
[V:1]A2z2 c2c2 |
[V:2]CDCD CDCD |
[V:3]A,CA,C A,CA,C |
[V:4]D,4 z4 |
[V:1]c6 d2 |
[V:2]CDCD CDCD |
[V:3]A,CA,C A,CA,C |
[V:4]F,,8 |
[V:1]B2AG e2e2 |
[V:2]B,DB,D CEGc |
[V:3]G,B,G,B, G,2G,2 |
[V:4]G,,4 C,4 |
[V:1]d2cB A2GF |
[V:2]B2AG A2GF |
[V:3]D,2z2 C2B,A, |
[V:4]D,4 D,4 |
[V:1]GBdg fdce |
[V:2]G4 z4 |
[V:3]G,B,DG FDCE |
[V:4]G,,4 z4 |
[V:1]dBAc BGFA |
[V:2]z6 [c2D2] |
[V:3]DB,A,C B,G,F,A, |
[V:4]z6 D,2 |
[V:1]GBdg fdce |
[V:2][D4B4] z4 |
[V:3]G,B,DG FDCE |
[V:4]G,,4 z4 |
[V:1]dBAc BGFA |
[V:2]z6 CA, |
[V:3]DB,A,C B,G,F,A, |
[V:4]z6 D,2 |
[V:1]GBdg Bdgb |
[V:2]G,B,DG B,DGB |
[V:3]G,B,DG B,DGB |
[V:4]G,,B,,D,G, B,,D,G,B, |
[V:1]dgbd' c'bag |
[V:2]DGBd cBAG |
[V:3]DGBd cBAG |
[V:4]D,G,B,D CB,A,G, |
[V:1]fgag fedc |
[V:2]FGAG FEDC |
[V:3]FGAG FEDC |
[V:4]F,G,A,G, F,E,D,C, |
[V:1]Bcdc BAGF |
[V:2]B,2dc BAGF |
[V:3]B,CDC B,A,G,F, |
[V:4]B,,C,D,C, B,,A,,G,,F,, |
[V:1]EFGF GFGF |
[V:2]EFGF GFGF |
[V:3]E,F,G,F, G,F,G,F, |
[V:4]E,,F,,G,,F,, G,,F,,G,,F,, |
[V:1]GFGF GFED |
[V:2]GFGF GFED |
[V:3]G,F,G,F, G,F,E,D, |
[V:4]G,,F,,G,,F,, G,,F,,E,,D,, |
[V:1]C8 |
[V:2]C8 |
[V:3]C,8 |
[V:4]C,,8 |
[V:1]^C8 |
[V:2]^C8 |
[V:3]^C,8 |
[V:4]^C,,8 |
[V:1]D4 z4 |
[V:2]D4 B2B2 |
[V:3]D,4 G2G2 |
[V:4]D,,8- |
[V:1]GABc defg |
[V:2]B6 d2 |
[V:3]G8 |
[V:4]D,,8- |
[V:1]fgab c'2ba |
[V:2]c2A2 F2ED |
[V:3]c8 |
[V:4]D,,8- |
[V:1]b2g'f' e'd'c'b |
[V:2]G2G2 G2FG |
[V:3]B2B2 B2AB |
[V:4]D,,8- |
[V:1]a2c'b agfe |
[V:2]A2z2 c2c2 |
[V:3]c2z2 [A2F2][A2F2] |
[V:4]D,,8- |
[V:1]defg ac'af |
[V:2]c6 d2 |
[V:3][A6F6] A2 |
[V:4]D,,8 |
[V:1]g2fg ac'af |
[V:2]B2AG c2d2 |
[V:3][G4B4] z2cA |
[V:4]G,,4 z2D,2 |
[V:1]g2fg ac'af |
[V:2]B2AG c2d2 |
[V:3]G4 z2cA |
[V:4]G,4 z2D,,2 |
[V:1]g2fg e2de |
[V:2]B2AB c2Bc |
[V:3]G8 |
[V:4]G,,2G,,2 C,2C,2 |
[V:1]d2cB A2GF |
[V:2]B2AG A2GF |
[V:3]D2D2 C2B,A, |
[V:4]D,2D,2 D,2D,2 |
[V:1]G2z2 g2g2 |
[V:2]G2z2 d2d2 |
[V:3]G,2z2 B2B2 |
[V:4]G,,2z2 G2G2 |
[V:1]g2z2 G,B,DB, |
[V:2]d2z2 G,B,DB, |
[V:3]B2z2 G,B,DB, |
[V:4]G2z2 G,,B,,D,B,, |
[V:1]G,2z2 b2b2 |
[V:2]G,2z2 d2d2 |
[V:3]G,2z2 B2B2 |
[V:4]G,,2z2 G2G2 |
[V:1]b2z2 G,B,DB, |
[V:2]d2z2 G,B,DB, |
[V:3]B2z2 G,B,DB, |
[V:4]G2z2 G,,B,,D,B,, |
[V:1]G,2z2 g'2g'2 |
[V:2]G,2z2 b2b2 |
[V:3]G,2z2 d2d2 |
[V:4]G,,2z2 G2G2 |
[V:1]g'2z6 |
[V:2]b2z6 |
[V:3]d2z6 |
[V:4]G2z6 |
[V:1]z4 g'2g'2 |
[V:2]z4 b2b2 |
[V:3]z4 d2d2 |
[V:4]z4 G2G2 |
[V:1]g'2z6 |]
[V:2]b2z6 |]
[V:3]d2z6 |]
[V:4]G2z6 |]

